X:5114
T:Pil\'e-menu du père Rouxel
O:england
C:Sonneurs: Louis Rouxel
C:Perroches: Midi Breton
M:2/4
L:1/16
K:C
G2AG F2E2|D2B2 A2G2|G2AG F2E2|D2B2 A4:|\
|:G2AB c2B2|G2A2 A4|
A2Bc d2c2|B2A2 d2B2|\
G2AB c2B2|G2A2 A4|A2Bc d2fe|dcBA G4:|


